X:484
T:Wayfaring Stranger
C:Traditional - Arr. Tim O'Brien
N:
R:bluegrass
L:1/8
Q:1/4=160
M:4/4
K:C
z2 GG _BG Bc |: "Gm"d/d/d/d/ d/d/d/d/ d/d/d/d/ d/d/d/d/ | d/d3/2 G_B dd cd | _BG/G/ G/G/G/G/ G/G/G/G/ G/G/G/G/ | 
G/G3/2 GG _BG Bd | "Cm"c/c/c/c/ c/c/c/c/ c/c/c/c/ c/c/c/c/ |1 c/c3/2 dc _BG Bc | 
"Gm"d/d/d/d/ d/d/d/d/ d/d/d/d/ d/d/d/d/ | d/d3/2 GG _BG Bc :|2 "Cm"c2 dc _BG DF | 
"Gm"G/G/G/G/ G/G/G/G/ G/G/G/G/ G/G/G/G/ | G/G3/2 d2 d^d fd | "Eb"f/f/g/g/ g/g/g/g/ g/g/g/g/ g/g/g/g/ | 
g/g3/2 f_b gd fc | "Bb"d{a}f/f/ f/f/f/f/ f/f/f/f/ f/f/f/f/ | f/f3/2 d^d f=d f_b | 
"Eb"f/f/g/g/ g/g/g/g/ g/g/g/g/ g/g/g/g/ | g/g3/2 fg fd c_B | "D"c/c/d/d/ d/d/d/d/ d/d/d/d/ d/d/d/d/ | 
d/d3/2 GG _BG Bc | "Gm"c/c/d/d/ d/d/d/d/ d/d/d/d/ d/d/d/d/ | d/d3/2 G_B dd cd | 
_BG/G/ G/G/G/G/ G/G/G/G/ G/G/G/G/ | G/G3/2 GG _BG Bd | "Cm"c/c/c/c/ c/c/c/c/ c/c/c/c/ c/c/c/c/ | 
c2 dc _BG DF | "Gm"G/G/G/G/ G/G/G/G/ G/G/G/G/ G/G/G/G/ | G8 | 


